X:1
T:Ich schreyet fast
T:Conrad Hagius
T:Source : Lobgesänge---Ursell---C.Sutorius---1606. Editor : André Vierendeels (25/05/17).
T:Notes : Original clefs :  G2, C2, C3 F3 Original note values have been halved Editorial accidentals above the staff Text Middle German  (Clamavi de tribulatione ad Dominum) (Ionae 2) 
T:Ich schreyet fast
T:©
T:©
T:©
C:Conrad Hagius
Z:©
%%score [ 1 2 3 4 ]
L:1/8
Q:1/4=120
M:2/2
K:F
V:1 treble nm="Soprano" snm="S"
V:2 treble nm="Alto" snm="A"
V:3 treble-8 nm="Tenor" snm="T"
V:4 bass nm="Bass" snm="B"
V:1
"^1)" c4 c2 d2 | c2 B2 c2 B2 | A4 z4 | c4 c2 =B2 | c4 A2 F2- | F2 E2 F4 | z4 F4 | F2 G2 A2 c2 | %8
w: Ich schrey- et|fast in mei- ner|noht,|rieff an den|lie- ben from-|* men Gott,|der|hat auch mein ge-|
w: Du hast mein|Gott gar wün- der-|lich|in tief- fen|schlund ge- wor-|* ffen mich,|ja|mit- ten in das|
 B2 B2 A4 | z4 A4 | B2 c2 c2 A2 | c4 c4 | z4 c4 | c2 B2 A2 A2 | G2 G2 ^F4 | z4 A4 | A2 B2 A2 G2- | %17
w: bet er- hört,|ausz|je- nem tief- fen|schlun- de,|hat|er ver- nom- men|mei- ne wort,|schir|ausz der hel- len|
w: wil- de meer,|da|war in not mein|le- ben,|weil|ich van al- ler|sei- ten her,|mit|was- ser war um-|
 G2 F3 E/D/ E2 | F8 |] %19
w: _ grun- * * *|de.|
w: * ge- * * *|ben.|
V:2
"^2)""^1)" A4 A2 A2 | G2 G2 A2 G2 | E4 z4 | A4 G2 G2 | E2 C2 C2 C2 | C8 | z4 C4 | D2 D2 F2 F2 | %8
w: Ich schrey- et|fast in mei- ner|noht,|rieff an den|lie- ben from- men|Gott,|der|hat auch mein ge-|
w: All dei- ne|tief- fend wel- len|schwer,|die fu- ren|ü- ber mich da-|her:|da|sprach ich in dem|
 F2 F2 F4 | z4 F4 | F2 A2 G2 F2 | G4 A4 | z4 A4 | G2 G2 E2 F2 | D2 D2 D4 |"^-natural" z4 F4 | %16
w: bet er- hört,|ausz|je- nem tief- fen|schlun- de,|hat|er ver- nom- men|mei- ne wort,|schir|
w: Hertz- en mein:|nu|bin ich gar ver-|las- sen,|du|hast mich von den|au- gen dein|ver-|
 F2 F2 F2 D2 | _EDCB, C4 | A,8 |] %19
w: ausz der hel- len|grun- * * * *|de.|
w: wor- ffen al- ler|mas- * * * *|sen.|
V:3
"^3)""^1)" f4 f2 f2 | e2 d2 f2 d2 | c4 z4 | f4 e2 d2 | c2 F2 A4 | G4 F4 | z4 F4 | A2 B2 c2 c2 | %8
w: Ich schrey- et|fast in mei- ner|noht,|rieff an den|lie- ben from-|men Gott,|der|hat auch mein ge-|
w: Je- doch in|die- ser höch- sten|not,|mein Hertz sich|des ge- trö-|stet hat,|es|macht mir war- lich|
 d2 d2 c4 | z4 c4 | d2 f2 e2 d2 | e4 f4 | z4 f4 | e2 d2 c2 d2 | B2 B2 A4 | z4 c4 | d4 c2 B2- | %17
w: bet er- hört,|ausz|je- nem tief- fen|schlun- de,|hat|er ver- nom- men|mei- ne wort,|schir|ausz der hel-|
w: gu- ten mut,|weil|ich thet fest ver-|traw- en,|dasz|ich dein heil- gen|tem- pel gut,|sol|wi- der- umb|
 B2 A2 G4 | F8 |] %19
w: * len grun-|de.|
w: _ an- schaw-|en.|
V:4
"^4)""^1)""^5)" F,4 F,2 F,2 | C2 G,2 F,2 G,2 | A,4 z4 | F,4 G,2 G,2 | A,3 G, F,4 | C,4 F,4 | %6
w: Ich schrey- et|fast in mei- ner|noht,|rieff an den|lie- neb from-|men Gott,|
w: Die was- ser|hat- ten ängst- ich-|lich|bisz an die|seel umb- ge-|ben mich,|
 z4 F,4 | D,2 G,2 F,2 A,2 | B,2 B,2 F,4 | z4 F,4 | B,2 F,2 C2 D2 | C4 F,4 | z4 F,4 | %13
w: der|hat auch mein ge-|bet er hört,|ausz|je- nem tief- fen|schlun- de,|hat|
w: die|ab- gründ wa- ren|imb mich her,|um-|brin- gen mich mit|schreck- en,|das|
 C,2 G,2 A,2 F,2 | G,2 G,2 D,4 |"^-natural" z4 F,4 | D,2 B,,2 F,2 G,2 | _E,2 F,2 C,4 | F,8 |] %19
w: er ver- nom- men|mei- ne wort,|schir|ausz der hel- *|* len grun-|de.|
w: un- ge stüm- me|wil- de meer,|mein|heupt thet ü- ber|deck- * *|en.|

